X:18
T:Wedderburn's Reel
P:Duncan Gray
C:Traditional
R:Reel (8x32)
B:RSCDS Gr-18
Z:Anselm Lingnau <anselm@strathspey.org>
M:C
L:1/4
K:A
"A"EA "E7"[GD]"A"[AE]|"Bm"Bc "E"[G2E2]|"A"[A2E2] "E7"B>d|"A"[cE][AC][AC]z|
"A"EA "E7"[GD]"A"[AE]|"Bm"Bc "E"[G2E2]|"A"[A2E2]"E7"B>d|"A"[cE][AC][AC]z||
"A"ce ed/c/|"Bm"dd d2|dc "B7"BA|"E"G"B7"[BF] "E7"E2|
"A"ef/e/ "E7"d"A"c|"Bm"B/c/d/B/ "E7"G2|"A"[A2E2]"E7"B>d|"A"[cE][AC][AC]z|]
